private/icons/dark/view-categories.svg

<svg viewBox="0 0 32 32" xmlns="http://www.w3.org/2000/svg"><path d="m28 8.7v14.6a2.05 2.05 0 0 1 -2.1 2.1h-19.8a2.05 2.05 0 0 1 -2.1-2.1v-14.6a2 2 0 0 1 .6-1.5 2.2 2.2 0 0 1 1.5-.6h19.7a2 2 0 0 1 1.5.6 1.8 1.8 0 0 1 .7 1.5zm-1.7 14.6v-11.2a.35.35 0 0 0 -.4-.4h-19.8a.35.35 0 0 0 -.4.4v11.1a.35.35 0 0 0 .4.4h19.7a.37.37 0 0 0 .3-.1.22.22 0 0 0 .2-.2zm-17.2-9.4v.9a.35.35 0 0 1 -.4.4h-.8a.35.35 0 0 1 -.4-.4v-.9a.35.35 0 0 1 .4-.4h.9a.37.37 0 0 1 .3.1c.1.1 0 .1 0 .3zm0 3.4v.9a.35.35 0 0 1 -.4.4h-.8a.35.35 0 0 1 -.4-.4v-.9a.35.35 0 0 1 .4-.4h.9a.37.37 0 0 1 .3.1zm0 3.4v.9a.35.35 0 0 1 -.4.4h-.8a.35.35 0 0 1 -.4-.4v-.9a.35.35 0 0 1 .4-.4h.9a.37.37 0 0 1 .3.1c.1.1 0 .2 0 .3zm15.5-6.8v.9a.35.35 0 0 1 -.4.4h-12.9a.35.35 0 0 1 -.4-.4v-.9a.35.35 0 0 1 .4-.4h12.9a.37.37 0 0 1 .3.1.44.44 0 0 1 .1.3zm0 3.4v.9a.35.35 0 0 1 -.4.4h-12.9a.35.35 0 0 1 -.4-.4v-.9a.35.35 0 0 1 .4-.4h12.9a.37.37 0 0 1 .3.1c0 .1.1.2.1.3zm0 3.4v.9a.37.37 0 0 1 -.1.3c-.1.1-.2.1-.4.1h-12.8a.35.35 0 0 1 -.4-.4v-.9a.35.35 0 0 1 .4-.4h12.9a.37.37 0 0 1 .3.1c0 .1.1.2.1.3z" fill="#2485ce"/></svg>

<svg id="Layer_1" data-name="Layer 1" xmlns="http://www.w3.org/2000/svg" viewBox="0 0 32 32"><defs><style>.cls-1{fill:#2485ce;}</style></defs><path class="cls-1" d="M28,8.7V23.3a2.05,2.05,0,0,1-2.1,2.1H6.1A2.05,2.05,0,0,1,4,23.3V8.7a2,2,0,0,1,.6-1.5,2.2,2.2,0,0,1,1.5-.6H25.8a2,2,0,0,1,1.5.6A1.8,1.8,0,0,1,28,8.7ZM26.3,23.3V12.1a.35.35,0,0,0-.4-.4H6.1a.35.35,0,0,0-.4.4V23.2a.35.35,0,0,0,.4.4H25.8a.37.37,0,0,0,.3-.1A.22.22,0,0,0,26.3,23.3ZM9.1,13.9v.9a.35.35,0,0,1-.4.4H7.9a.35.35,0,0,1-.4-.4v-.9a.35.35,0,0,1,.4-.4h.9a.37.37,0,0,1,.3.1C9.2,13.7,9.1,13.7,9.1,13.9Zm0,3.4v.9a.35.35,0,0,1-.4.4H7.9a.35.35,0,0,1-.4-.4v-.9a.35.35,0,0,1,.4-.4h.9a.37.37,0,0,1,.3.1Zm0,3.4v.9a.35.35,0,0,1-.4.4H7.9a.35.35,0,0,1-.4-.4v-.9a.35.35,0,0,1,.4-.4h.9a.37.37,0,0,1,.3.1C9.2,20.5,9.1,20.6,9.1,20.7Zm15.5-6.8v.9a.35.35,0,0,1-.4.4H11.3a.35.35,0,0,1-.4-.4v-.9a.35.35,0,0,1,.4-.4H24.2a.37.37,0,0,1,.3.1A.44.44,0,0,1,24.6,13.9Zm0,3.4v.9a.35.35,0,0,1-.4.4H11.3a.35.35,0,0,1-.4-.4v-.9a.35.35,0,0,1,.4-.4H24.2a.37.37,0,0,1,.3.1C24.5,17.1,24.6,17.2,24.6,17.3Zm0,3.4v.9a.37.37,0,0,1-.1.3c-.1.1-.2.1-.4.1H11.3a.35.35,0,0,1-.4-.4v-.9a.35.35,0,0,1,.4-.4H24.2a.37.37,0,0,1,.3.1C24.5,20.5,24.6,20.6,24.6,20.7Z"/></svg>
